X:1
T:On The Rural Route
T:On The Rural Route
T:(Fox trot-Rag two-step)
T:Paul Pratt
T:Copyright 1917 by Stark Music Co
T:Copyright 1917 by Stark Music Co
T:Copyright 1917 by Stark Music Co
T:Copyright 1917 by Stark Music Co
T:Copyright 1917 by Stark Music Co
C:Paul Pratt
Z:Copyright 1917 by Stark Music Co
%%score { ( 1 3 5 ) | ( 2 4 ) }
L:1/8
Q:1/4=190
M:4/4
K:C
V:1 treble nm="Piano" snm="Pno."
V:3 treble 
V:5 treble 
V:2 bass 
V:4 bass 
V:1
"^Moderato.""^(ruben tempo)"!mf! !tenuto![ae']2 !tenuto![ae']2 [da][da] !tenuto![da]2 | %1
 !tenuto![ae']2 !tenuto![ae']2!<(! !tenuto![da]4!<)! | !>!d2 dd !>![^Fd]2 !>![Fd]2 | %3
 !>![=Fd]4 !>![Bfg]2 z2 |:!p!!f!"_-" (c>d e) z (d>e f) z | (c>de>c d>c A) z | (G>AB>c- c>Bc>d) | %7
 (!>!e2 d2) (!>!e2 d2) | (c>d e) z (d>e f) z | (c>de>c d>c A) z | (G>AB>c- c>Bc>d) | %11
 !>![FBe]2 !>![FBd]2 !>![EGc]2 z2 | (e>f g) z (^f>e d) z | (d>e=f>d e>d c) z | %14
 !>![^Fd]2 (d>e d>cB>A) | !>![=FB]2 !>![Fd]2 !>![Bg]2 z2 | (c>d e) z (d>e f) z | %17
 (c>de>c d>c A) z |1 !>!G2 !>!c2 !>!c2 !>!c2 | !>!c2{/^f} !>![Gg]2{/f} !>![Ag]2{/f} !>![Bg]2 :|2 %20
 (GA[FB][Ec]- [Ec]>Bc>c) | !>![^Fce]2 !>![=FBd]2 !>![EGc]2 || (e>d |: c4-) c2 (e>d | %24
 (3(cdc) .A2) .A2 (e>d | c4-) c2 e>c | (d>ed>c d2) (e>d | c4-) c2 (e>d | (3(cdc) .A2) .A2 (Bc | %29
 d>ed>c A2) (Bc | d>ed>B) A>(^ga>g | [cea]4- [cea]>^ga>g | a2) !^![_Bd]2 !^![Bd]>(^de>d | %33
 [Ace]4- [Ace]>^d[Ae]>d | e2) !^![FA]2 !^![FA]2 (e>d | c4-) c2 (e>d | (3(cdc) .A2) .A2 (B>c) | %37
 (d>ed>c .A2 .A2) | !tenuto!c4 !>![cegc']2 z!f! (3e/^f/^g/ | !>!a2 z2 !^!A,4- | %40
 A,>(B,C>A, B,2) z2 | (e^def e2) =d2 | B2 ^G2 !>!F2 E (3e/^f/^g/ | !>!a2 z2 !^!A,4- | %44
 A,>(B,C>A, B,2) z2 | !^!e2 (e>f e>dc>B) | A4- A2 a>g | f4- f2 a>g | (3fgf .d2 .d2 e>d | %49
 c4- c2 e>d | (3cdc .A2 .A2 (3e^f^g | a2 z2 !^!A,4- | A,>(B,C>A, B,2) z2 | e3 E F2 ^D2 |1 %54
 E2 !>![CD^F]2 !>![B,=FG]2 e>d :|2 E2 !>![CD^F]2 !>![CEA]2 z2 || %56
[K:G]!mf! !tenuto![ae']2 !tenuto![ae']2 [da][da] !tenuto![da]2 | %57
 !tenuto![ae']2 !tenuto![ae']2 !tenuto![da]4 |!<(! !>!A2 AA !>![^CGA]2 !>![CGA]2!<)! | %59
 !>![=CFA]4 !>![Fcd]2 z2 |:!p!!f!"_-" (g>ba>g e2) !>![ce]2 | d2 !>![Bd]2 g2 !>![Bdg]2 | %62
 !>![dgd']2 !>![dgd']4 !>![^cg^c']2 | !>![=ce=c']8 | !>![^cgb]2 !>![cgb]4 !>![cg_b]2 | !>![=cfa]8 | %66
 !>![Bda]2 !>![Bda]4 !>![Bd_a]2 | !>![Bdg]8 | (g>ba>g e2) !>![ce]2 | d2 !>![Bd]2 g2 !>![Bdg]2 | %70
 [=fbd']2 [fbd']4 [fb_d']2 | !>![ec']8 | !>![_egb_e']8 | [=dg=b=d']2 (3gag [d^f]2 [de]2 | %74
 [^cgb]2 [cgb]>a [=cfb]2 [cfa]2 |1 [Bdg]2 !>!d>!>!d !>!d2 !>!d2 :|2 [Bdg]4 !>![GBdg]2 z2 || %77
[K:C]!mf! !tenuto![ae']2 !tenuto![ae']2 [da][da] !tenuto![da]2 | %78
 !tenuto![ae']2 !tenuto![ae']2!<(! !tenuto![da]4!<)! | !>!d2 dd !>![^Fd]2 !>![Fd]2 | %80
 !>![=Fd]4 !>![Bfg]2 z2 |!f! (c'>d' e') z (d'>e' f') z | (c'>d'e'>c' d'>c' a) z | %83
 (gabc'- c'bc'd') | (!>!e'2 d'2) (!>!e'2 d'2) | (c'>d' e') z (d'>e' f') z | %86
 (c'>d'e'>c' d'>c' a) z | (gabc'- c'bc'd') | !>![fbe']2 !>![fbd']2 !>![egc']2 z2 | %89
 e'>f' g' z ^f'>e' d' z | d'>e'=f'>d' e'>d' c' z | !^![^fd']2 d'>e' d'>c'b>a | %92
 !>![=fb]2 !>![fd']2 !>![gbg']2 z2 | (c'>d' e') z (d'>e' f') z | (c'>d'e'>c' d'>c' a) z | %95
 (gabc'- c'bc'd') | !>![fbe']2 !>![fbd']2 !>![egc']2 z2 | %97
!mf! !tenuto![Ae]2 !tenuto![Ae]2 [DA][DA] !tenuto![DA]2 | %98
 !tenuto![Ae]2 !tenuto![Ae]2 !tenuto![DA]4 |!f! !>![EGc]2 ^FG (!>!_A2 G2) | %100
 z2 !>![FGB]2 !>![EGc]2 z2 |] %101
V:2
"^(like a fiddle)" z8 | z8 | !>![A,C]4 !>![_A,C]2 !>![A,C]2 | !>!B,4 !>![G,,G,]2 z2 |: %4
 C,2 [G,CE]2 D,2 [G,B,F]2 | C,2 [_B,CE]2 F,2 [A,C]2 | C,2 [G,CE]2 G,,2 [G,CE]2 | %7
 !>![A,,A,]2 [_A,,_A,]2 !>![G,,G,]4 | C,2 [G,CE]2 D,2 [G,B,F]2 | C,2 [_B,CE]2 F,2 [A,C]2 | %10
 C,2 [G,CE]2 G,,2 [G,CE]2 | !>![G,,G,]2 !>![G,,G,]2 !>![C,C]2 z2 | A,,2 [G,A,^C]2 D,2 [^F,A,=C]2 | %13
 G,,2 [=F,G,B,]2 A,,2 [E,A,C]2 | !>![^F,A,C]8 | G,,2 !>![=F,G,B,]2 !>![F,G,B,]2 z2 | %16
 C,2 [G,CE]2 D,2 [G,B,F]2 | C,2 [_B,CE]2 F,2 [A,C]2 |1 z2 !>!G,2 !>!A,2 !>!_A,2 | %19
 !>!G,2 !>!B,2 !>!C2 !>!D2 :|2 (([E,E]2 [D,D]2 [C,C]2 [_B,,_B,]2)) | %21
 !>![A,,A,]2 !>![G,,G,]2 !>![C,C]2 || (_A,2 |: (G,2) _A,2 G,2) (^G,2 | %24
 [A,,A,]2) .[A,CE]2 .[A,CE]2 C,2 | (G,2 _A,2 G,2) (_B,2 | [A,,A,]2) [A,C^F]2 [G,B,=F]2 z2 | %27
 (G,2 _A,2 G,2) ^G,2 | [A,,A,]2 .[A,CE]2 .[A,CE]2 z2 | D,2 [CD^F]2 [CDF]2 z2 | %30
 G,,2 [G,B,=F]2 [G,B,F]3/2 z/ z2 | C,2 [G,CE]2 D,2 [G,B,F]2 | E,2 [_B,CE]2 C,2 [B,CE]2 | %33
 F,2 [A,CF]2 C,2 [A,CF]2 | x2 !^![A,C]2 !^![A,C]2 (_A,2 | (G,2) _A,2 G,2) ^G,2 | %36
 [A,,A,]2 .[A,CE]2 .[A,CE]2 z2 | [A,,A,]2 .[A,C^F]2 .[G,B,=F]2 .[G,B,F]2 | %38
 z2 [G,,G,]2 !>![C,,C,]2 z[K:treble] (3E/^F/^G/ | !>!A2 z2 z4 | .[Ace]2 .[Ace]2 .[^Gde]2 z2 | %41
[K:bass] (E^DEF E2) =D2 | B,2 ^G,2 !>![D,G,B,]3[K:treble] (3E/^F/^G/ | !>!A2 z2 z4 | %44
 .[Ace]2 .[Ace]2 .[^Gde]2 z2 |[K:bass] !^![^G,DE]8 | z2 (E,2 A,,2) F,2 | C2 _D2 C2 ^C2 | %48
 [D,D]2 .[A,DF]2 .[A,DF]2 z2 | G,2 _A,2 G,2 ^G,2 | [A,,A,]2 .[A,CE]2 .[A,CE]2[K:treble] (3E^F^G | %51
 A2 z2 z4 | .[Ace]2 .[Ace]2 .[^Gde]2 z2 |[K:bass] E3 E, F,2 ^D,2 |1 %54
 E,2 !>![D,,D,]2 !>![G,,G,]2 C,2 :|2 E,2 !>![E,,E,]2 !>![A,,A,]2 z2 ||[K:G] z8 | z8 | %58
 !>![E,,E,]4 !>![_E,,_E,]2 !>![E,,E,]2 | !>![D,,D,]4 !>![D,,D,]2 z2 |: %60
 [G,,G,]2 [D,G,B,]2 C,2 [G,CE]2 | A,,2 [D,G,B,]2 D,,2 [D,G,B,]2 | %62
 !>![B,,B,]2 !>![B,,B,]4 !>![_B,,_B,]2 | !>![A,,A,]2 [F,A,C]2 [D,,D,]2 [F,A,C]2 | %64
 E,2 [G,A,^C]2 A,,2 [G,A,C]2 | D,2 [F,A,=C]2 A,,2 [F,A,C]2 | [G,,G,]2 [D,G,B,]2 D,,2 [D,G,B,]2 | %67
 [G,,G,]2 [D,G,B,]2 D,,2 [D,G,B,]2 | [G,,G,]2 [D,G,B,]2 C,2 [G,CE]2 | %69
 A,,2 [D,G,B,]2 D,,2 [D,G,B,]2 | G,,2 [=F,G,B,]2 G,,2 [F,G,B,]2 | C,2 [G,CE]2 G,,2 [G,CE]2 | %72
 [_E,,_E,]2 [G,_B,_E]2 _B,,2 [G,B,E]2 | [G,,G,]2 [D,G,=B,]2 [E,,E,]2 [E,^G,D]2 | %74
 A,,2 [G,A,^C]2 [D,,D,]2 [F,A,=C]2 |1 [G,B,D]2 !>!D>!>!D !>!D2 !>!D2 :|2 %76
 [G,,G,]2 !>![D,,D,]2 !>![G,,,G,,]2 z2 ||[K:C] z8 | z8 | !>![A,C]4 !>![_A,C]2 !>![A,C]2 | %80
 !>!B,4 !>![G,,G,]2 z2 | C,2 [G,CE]2 D,2 [G,B,F]2 | C,2 [_B,CE]2 F,2 [A,C]2 | %83
 C,2 [G,CE]2 G,,2 [G,CE]2 | !>![A,,A,]2 [_A,,_A,]2 !>![G,,G,]4 | C,2 [G,CE]2 D,2 [G,B,F]2 | %86
 C,2 [_B,CE]2 F,2 [A,C]2 | C,2 [G,CE]2 G,,2 [G,CE]2 | !>![G,,G,]2 !>![G,,G,]2 !>![C,C]2 z2 | %89
 [A,,A,]2 [G,A,^C]2 [D,,D,]2 [^F,A,=C]2 | [G,,G,]2 [=F,G,B,]2 [A,,A,]2 [E,A,C]2 | %91
 [D,,D,]2 [^F,A,C]2 [D,,D,]2 [F,A,C]2 | [G,,G,]2 !>![G,B,=F]2 !>![G,B,F]2 z2 | %93
 C,2 [G,CE]2 D,2 [G,B,F]2 | C,2 [_B,CE]2 F,2 [A,C]2 | C,2 [G,CE]2 G,,2 [G,CE]2 | %96
 !>![G,,G,]2 !>![G,,G,]2 !>![C,C]2 z2 | z8 | z4 z2 z (3G,/A,/B,/ | !>!C2 ^F,G, (!>!_A,2 G,2) | %100
 z2 !>![G,,G,]2 !>![C,C]2 z2 |] %101
V:3
 x8 | x8 | ^F4 x4 | x8 |: x4 B4 | _B4 x4 | x8 | [^Fc]4 [=FB]4 | x4 B4 | _B4 x4 | x8 | x8 | %12
 ^c4 =c4 | x8 | x8 | x8 | x4 B4 | _B4 x4 |1 E2 E2 [^D^F]2 [=D=F]2 | [CE]2 x6 :|2 x8 | x6 || F2 |: %23
 (E2 F2 E2) F2 | x6 F2 | (E2 F2 E2) F2 | x8 | (E2 F2 E2) F2 | x8 | x8 | x8 | x6 [Bf]2 | [ce]2 x6 | %33
 x6 x2 | x6 F2 | (E2 F2 E2) F2 | x8 | x8 | x8 | x8 | x8 | x8 | x8 | x8 | x8 | x8 | x6 _B2 | %47
 A2 _B2 A2 B2 | x6 F2 | E2 F2 E2 F2 | x8 | x8 | x8 | x8 |1 x6 F2 :|2 x8 ||[K:G] x8 | x8 | %58
 [^CG]4 x4 | x8 |: x8 | x8 | x8 | z2 (3(def [ce]2 [cd]2) | x8 | z2 (3(def [ce]2 [cd]2) | x8 | %67
 z2 (3(def [Be]2 [Bd]2) | x8 | x8 | x8 | z2 (3(gab [ea]2 [eg]2) | z2 (3_e=fg !>![_df]2 [de]2 | x8 | %74
 x8 |1 x8 :|2 x8 ||[K:C] x8 | x8 | ^F4 x4 | x8 | x4 b4 | _b4 x4 | x8 | [^fc']4 [=fb]4 | x4 b4 | %86
 _b4 x4 | x8 | x8 | ^c'4 =c'4 | b4 a4 | x8 | x8 | x4 b4 | _b4 x4 | x8 | x8 | x8 | x8 | x8 | x8 |] %101
V:4
 x8 | x8 | D,8 | !>!G,4 x4 |: x8 | x8 | x8 | x8 | x8 | x8 | x8 | x8 | x8 | x8 | x8 | x8 | x8 | %17
 x8 |1 !>!C,8 | !>!C,2 !>!G,6 :|2 x8 | x6 || C,2 |: C,4- C,2 z2 | x6 _A,2 | C,4- C,2 z2 | x8 | %27
 C,4- C,2 z2 | x8 | x8 | x8 | x8 | x8 | x8 | F,6 C,2 | C,4- C,2 z2 | x8 | x8 | %38
 [G,CE]4 x3[K:treble] x | x8 | x8 |[K:bass] x8 | x7[K:treble] x | x8 | x8 |[K:bass] x8 | %46
 [G,CE]6 _D2 | F,4- F,2 z2 | x6 C,2 | C,4- C,2 z2 | x6[K:treble] x2 | x8 | x8 |[K:bass] x8 |1 %54
 x6 _A,2 :|2 x8 ||[K:G] x8 | x8 | x8 | x8 |: x8 | x8 | x8 | x8 | x8 | x8 | x8 | x8 | x8 | x8 | x8 | %71
 x8 | x8 | x8 | x8 |1 x8 :|2 x8 ||[K:C] x8 | x8 | D,8 | !>!G,4 x4 | x8 | x8 | x8 | x8 | x8 | x8 | %87
 x8 | x8 | x8 | x8 | x8 | x8 | x8 | x8 | x8 | x8 | x8 | x8 | x8 | x8 |] %101
V:5
 x8 | x8 | x8 | x8 |: x8 | x8 | x8 | x8 | x8 | x8 | x8 | x8 | x8 | x8 | x8 | x8 | x8 | x8 |1 x8 | %19
 x8 :|2 x8 | x6 || x2 |: x8 | x8 | x8 | x8 | x8 | x8 | x8 | x8 | x8 | x8 | x8 | x8 | x8 | x8 | x8 | %38
 x8 | x8 | x8 | x8 | x8 | x8 | x8 | x8 | x8 | x8 | x8 | x8 | x8 | x8 | x8 | x8 |1 x8 :|2 x8 || %56
[K:G] x8 | x8 | x8 | x8 |: x8 | x8 | x8 | x8 | x8 | x8 | x8 | x8 | x8 | x8 | x8 | x8 | x2 _d2 x4 | %73
 x8 | x8 |1 x8 :|2 x8 ||[K:C] x8 | x8 | x8 | x8 | x8 | x8 | x8 | x8 | x8 | x8 | x8 | x8 | x8 | x8 | %91
 x8 | x8 | x8 | x8 | x8 | x8 | x8 | x8 | x8 | x8 |] %101

